X: 50
T:Treble Mr Condiff,Primo. HA.049
M:3/4
L:1/4
Q:80
C:in Hand B
S:Henry Atkinson's original MS,Hartburn,N'umberland,1694.
O:England
A:Hartburn,Northumberland
H:1/4
Z:vmp.Chris Partington.Jan.2004
K:F
fed|a"#"cd|efd|e/d/e/f/e|fed|a"#"cd|\
"illegible inserted notes in MS"zzz|zzZ:|!
|:aga|bag|f/e/f/g/f/g/|a/g/a/b/a/b/|!
aga|bag|a3/4b/4g3/2a/|a2:|]
